packages/admin/admin-icons/icons/loudness-low.svg

<svg xmlns="http://www.w3.org/2000/svg" width="16" height="16" viewBox="0 0 16 16"><path fill="#242424" fill-rule="evenodd" d="M11.1464466,1.64644661 C11.4404302,1.35246301 11.9291843,1.52719453 11.9930449,1.91396798 L12,2 L12,14 C12,14.4157556 11.5308449,14.6378031 11.2121985,14.4094692 L11.1464466,14.3535534 L9.43671455,12.6438213 C9.24145241,12.4485592 9.24145241,12.1319767 9.43671455,11.9367146 C9.61028091,11.7631482 9.87970531,11.7438631 10.0745734,11.8788591 L10.1438213,11.9367146 L11,12.793 L11,3.206 L7.85355339,6.35355339 C7.77853884,6.42856794 7.68214268,6.47728504 7.57868937,6.4937713 L7.5,6.5 L5,6.5 L5,9.5 L7.5,9.5 C7.74545989,9.5 7.94960837,9.67687516 7.99194433,9.91012437 L8,10 C8,10.2454599 7.82312484,10.4496084 7.58987563,10.4919443 L7.5,10.5 L4.5,10.5 C4.25454011,10.5 4.05039163,10.3231248 4.00805567,10.0898756 L4,10 L4,6 C4,5.75454011 4.17687516,5.55039163 4.41012437,5.50805567 L4.5,5.5 L7.292,5.5 L11.1464466,1.64644661 Z"/></svg>

<svg width="16" height="16" fill="none" viewBox="0 0 16 16">
  <path fill="#242424" fill-rule="evenodd" d="M11.146 1.647a.5.5 0 0 1 .847.268l.007.086v12a.5.5 0 0 1-.788.41l-.066-.056-1.71-1.71a.5.5 0 0 1 .639-.765l.069.058.856.856V3.207L7.854 6.355a.5.5 0 0 1-.275.14L7.5 6.5H5v3h2.5a.5.5 0 0 1 .492.41L8 10a.5.5 0 0 1-.41.492l-.09.008h-3a.5.5 0 0 1-.492-.41L4 10V6a.5.5 0 0 1 .41-.492L4.5 5.5h2.792l3.854-3.854Z" clip-rule="evenodd"/>
</svg>
